;FLAVOR:UltiGCode
;TIME:6041
;MATERIAL:14303
;MATERIAL2:0
;NOZZLE_DIAMETER:0.6
;MINX:68.381
;MINY:88.881
;MINZ:0.4
;MAXX:152.843
;MAXY:134.119
;MAXZ:23.5
;Generated with Cura_SteamEngine 4.13.1
M82 ;absolute extrusion mode
G0 F3000 Y50 ;avoid prime blob
G92 E0
G92 E0
G10
;LAYER_COUNT:155
;LAYER:0
M107
G0 F3927.3 X74.671 Y90.884 Z0.4
;TYPE:SKIRT
G11
G1 F1800 X75.322 Y90.402 E0.17172
G1 X76.018 Y89.986 E0.34362
G1 X76.751 Y89.641 E0.51537
G1 X77.515 Y89.37 E0.68723
G1 X78.301 Y89.175 E0.85891
G1 X79.103 Y89.059 E1.0307
G1 X79.913 Y89.022 E1.2026
G1 X80.722 Y89.065 E1.37435
G1 X81.523 Y89.188 E1.54615
G1 X82.308 Y89.389 E1.71794
G1 X83.07 Y89.667 E1.8899
G1 X83.8 Y90.018 E2.06162
G1 X84.437 Y90.407 E2.21986
G1 X84.634 Y90.261 E2.27184
G1 X85.33 Y89.845 E2.44374
G1 X86.063 Y89.5 E2.61549
G1 X86.827 Y89.229 E2.78734
G1 X87.613 Y89.034 E2.95903
G1 X88.415 Y88.918 E3.13082
G1 X89.191 Y88.881 E3.29552
G1 X91.564 Y88.881 E3.79859
G1 X92.373 Y88.921 E3.97031
G1 X93.175 Y89.041 E4.14223
G1 X93.961 Y89.238 E4.31401
G1 X94.723 Y89.513 E4.48576
G1 X95.455 Y89.861 E4.65758
G1 X96.149 Y90.28 E4.82945
G1 X96.398 Y90.466 E4.89534
G1 X97.103 Y90.137 E5.06027
G1 X97.868 Y89.869 E5.23212
G1 X98.656 Y89.677 E5.40406
G1 X99.458 Y89.565 E5.57573
G1 X100.2 Y89.531 E5.7332
G1 X123.155 Y89.531 E10.59966
G1 X123.964 Y89.571 E10.77138
G1 X124.766 Y89.691 E10.9433
G1 X125.552 Y89.888 E11.11508
G1 X126.314 Y90.163 E11.28682
G1 X126.954 Y90.467 E11.43703
G1 X127.233 Y90.261 E11.51056
G1 X127.929 Y89.845 E11.68246
G1 X128.662 Y89.5 E11.8542
G1 X129.426 Y89.229 E12.02606
G1 X130.212 Y89.034 E12.19774
G1 X131.014 Y88.918 E12.36954
G1 X131.79 Y88.881 E12.53424
G1 X134.146 Y88.881 E13.03371
G1 X134.955 Y88.921 E13.20543
G1 X135.757 Y89.041 E13.37734
G1 X136.543 Y89.238 E13.54913
G1 X137.305 Y89.513 E13.72087
G1 X138.037 Y89.861 E13.8927
G1 X138.731 Y90.28 E14.06456
G1 X139.381 Y90.765 E14.23649
G1 X139.939 Y91.272 E14.39633
G1 X140.461 Y91.09 E14.51353
G1 X141.248 Y90.9 E14.68516
G1 X142.051 Y90.788 E14.85705
G1 X142.861 Y90.755 E15.02891
G1 X143.67 Y90.803 E15.20072
G1 X144.47 Y90.93 E15.37244
G1 X145.254 Y91.136 E15.54429
G1 X146.014 Y91.417 E15.71607
G1 X146.743 Y91.772 E15.88797
G1 X147.433 Y92.197 E16.05977
G1 X148.077 Y92.689 E16.23158
G1 X148.864 Y93.447 E16.46323
G1 X149.042 Y93.643 E16.51936
G1 X149.552 Y94.263 E16.68956
G1 X149.921 Y94.759 E16.82062
G1 X150.127 Y95.038 E16.89414
G1 X150.422 Y95.499 E17.01017
G1 X150.769 Y96.082 E17.154
G1 X151.09 Y96.675 E17.29695
G1 X151.468 Y97.448 E17.47937
G1 X151.765 Y98.134 E17.63785
G1 X152.11 Y99.04 E17.84338
G1 X152.296 Y99.585 E17.96546
G1 X152.485 Y100.21 E18.10389
G1 X152.732 Y101.28 E18.33669
G1 X152.737 Y101.311 E18.34335
G1 X152.827 Y102.116 E18.51507
G1 X152.842 Y102.619 E18.62176
G1 X152.843 Y120.374 E22.38582
G1 X152.78 Y121.393 E22.60226
G1 X152.774 Y121.441 E22.61251
G1 X152.633 Y122.239 E22.78431
G1 X152.48 Y122.818 E22.91127
G1 X152.287 Y123.451 E23.05156
G1 X152.102 Y123.989 E23.17217
G1 X151.764 Y124.873 E23.37281
G1 X151.495 Y125.499 E23.51726
G1 X151.118 Y126.283 E23.70169
G1 X150.718 Y127.015 E23.87853
G1 X150.354 Y127.609 E24.02622
G1 X149.935 Y128.228 E24.18469
G1 X149.574 Y128.71 E24.31235
G1 X149.453 Y128.866 E24.35421
G1 X149.053 Y129.343 E24.48618
G1 X148.872 Y129.543 E24.54337
G1 X148.299 Y130.117 E24.71531
G1 X147.673 Y130.631 E24.88702
G1 X146.999 Y131.081 E25.05883
G1 X146.283 Y131.462 E25.23078
G1 X145.534 Y131.771 E25.40255
G1 X144.758 Y132.005 E25.57438
G1 X143.963 Y132.161 E25.74613
G1 X143.156 Y132.237 E25.91797
G1 X142.346 Y132.234 E26.08969
G1 X141.54 Y132.152 E26.26145
G1 X140.745 Y131.99 E26.43345
G1 X139.971 Y131.751 E26.60518
G1 X139.932 Y131.735 E26.61412
G1 X139.355 Y132.257 E26.77907
G1 X138.704 Y132.739 E26.9508
G1 X138.008 Y133.155 E27.1227
G1 X137.275 Y133.5 E27.29444
G1 X136.511 Y133.771 E27.4663
G1 X135.725 Y133.966 E27.63798
G1 X134.923 Y134.082 E27.80978
G1 X134.147 Y134.119 E27.97448
G1 X131.791 Y134.119 E28.47395
G1 X130.982 Y134.079 E28.64567
G1 X130.18 Y133.959 E28.81758
G1 X129.394 Y133.762 E28.98937
G1 X128.632 Y133.487 E29.16111
G1 X127.9 Y133.139 E29.33294
G1 X127.206 Y132.72 E29.5048
G1 X126.957 Y132.534 E29.57069
G1 X126.252 Y132.863 E29.73563
G1 X125.487 Y133.131 E29.90747
G1 X124.699 Y133.323 E30.07941
G1 X123.897 Y133.435 E30.25109
G1 X123.155 Y133.469 E30.40856
G1 X100.2 Y133.469 E35.27502
G1 X99.391 Y133.429 E35.44673
G1 X98.589 Y133.309 E35.61865
G1 X97.803 Y133.112 E35.79044
G1 X97.041 Y132.837 E35.96218
G1 X96.401 Y132.533 E36.11239
G1 X96.122 Y132.739 E36.18591
G1 X95.426 Y133.155 E36.35781
G1 X94.693 Y133.5 E36.52956
G1 X93.929 Y133.771 E36.70141
G1 X93.143 Y133.966 E36.8731
G1 X92.341 Y134.082 E37.04489
G1 X91.565 Y134.119 E37.20959
G1 X89.192 Y134.119 E37.71266
G1 X88.383 Y134.079 E37.88438
G1 X87.581 Y133.959 E38.0563
G1 X86.795 Y133.762 E38.22809
G1 X86.033 Y133.487 E38.39983
G1 X85.301 Y133.139 E38.57166
G1 X84.607 Y132.72 E38.74352
G1 X84.488 Y132.631 E38.77502
G1 X84.354 Y132.729 E38.81022
G1 X83.654 Y133.137 E38.98198
G1 X82.918 Y133.475 E39.15368
G1 X82.151 Y133.739 E39.32565
G1 X81.363 Y133.926 E39.49735
G1 X80.56 Y134.034 E39.66911
G1 X79.75 Y134.062 E39.84094
G1 X78.941 Y134.011 E40.01279
G1 X78.141 Y133.88 E40.18464
G1 X77.358 Y133.671 E40.35645
G1 X76.599 Y133.386 E40.52833
G1 X75.873 Y133.027 E40.70003
G1 X75.185 Y132.599 E40.87181
G1 X74.542 Y132.105 E41.04371
G1 X74.06 Y131.66 E41.18278
G1 X73.02 Y130.621 E41.49444
G1 X72.476 Y130.02 E41.66629
G1 X71.909 Y129.242 E41.87038
G1 X70.799 Y127.51 E42.3065
G1 X70.396 Y126.807 E42.47829
G1 X70.065 Y126.067 E42.65015
G1 X69.807 Y125.299 E42.82191
G1 X69.627 Y124.509 E42.99368
G1 X69.525 Y123.705 E43.16549
G1 X69.503 Y122.894 E43.33749
G1 X69.559 Y122.114 E43.50327
G1 X69.407 Y121.808 E43.57571
G1 X69.121 Y121.05 E43.74746
G1 X68.911 Y120.267 E43.91933
G1 X68.784 Y119.517 E44.08059
G1 X68.577 Y117.806 E44.44597
G1 X68.42 Y116.223 E44.78321
G1 X68.381 Y115.299 E44.97927
G1 X68.404 Y113.718 E45.31448
G1 X68.456 Y112.909 E45.48634
G1 X68.587 Y112.109 E45.6582
G1 X68.796 Y111.326 E45.83001
G1 X68.821 Y111.259 E45.84517
G1 X68.742 Y110.989 E45.90481
G1 X68.591 Y110.193 E46.07657
G1 X68.512 Y109.058 E46.31777
G1 X68.512 Y107.704 E46.60482
G1 X68.538 Y107.051 E46.74336
G1 X68.61 Y106.148 E46.93541
G1 X68.638 Y105.864 E46.99591
G1 X68.94 Y103.23 E47.55797
G1 X69.028 Y101.756 E47.87102
G1 X69.116 Y100.951 E48.0427
G1 X69.305 Y100.078 E48.23206
G1 X69.612 Y98.956 E48.47867
G1 X69.667 Y98.681 E48.53812
G1 X69.866 Y97.896 E48.70981
G1 X70.141 Y97.134 E48.88155
G1 X70.371 Y96.633 E48.99842
G1 X70.809 Y95.756 E49.20624
G1 X70.987 Y95.414 E49.28798
G1 X71.301 Y94.793 E49.4355
G1 X71.702 Y94.088 E49.60745
G1 X72.171 Y93.427 E49.77927
G1 X72.606 Y92.914 E49.92186
G1 X72.951 Y92.547 E50.02864
G1 X74.07 Y91.428 E50.36414
G1 X74.671 Y90.884 E50.53599
G0 F3927.3 X75.027 Y91.278
G1 F1800 X75.659 Y90.814 E50.70221
G1 X76.335 Y90.418 E50.8683
G1 X77.048 Y90.092 E51.03451
G1 X77.791 Y89.841 E51.20077
G1 X78.555 Y89.667 E51.36688
G1 X79.333 Y89.571 E51.53307
G1 X80.117 Y89.556 E51.69931
G1 X80.898 Y89.62 E51.86543
G1 X81.668 Y89.763 E52.03147
G1 X82.42 Y89.984 E52.19763
G1 X83.146 Y90.281 E52.36392
G1 X83.838 Y90.65 E52.53018
G1 X84.432 Y91.069 E52.68429
G1 X84.971 Y90.673 E52.82608
G1 X85.647 Y90.277 E52.99217
G1 X86.36 Y89.951 E53.15838
G1 X87.103 Y89.7 E53.32464
G1 X87.867 Y89.526 E53.49075
G1 X88.645 Y89.43 E53.65694
G1 X89.191 Y89.411 E53.77276
G1 X91.564 Y89.411 E54.27584
G1 X92.347 Y89.451 E54.44205
G1 X93.121 Y89.57 E54.60807
G1 X93.88 Y89.768 E54.77436
G1 X94.614 Y90.042 E54.94046
G1 X95.317 Y90.39 E55.10675
G1 X95.981 Y90.807 E55.27298
G1 X96.357 Y91.1 E55.37404
G1 X96.869 Y90.821 E55.49765
G1 X97.591 Y90.517 E55.66373
G1 X98.341 Y90.289 E55.82991
G1 X99.111 Y90.139 E55.99622
G1 X100.2 Y90.061 E56.22768
G1 X123.155 Y90.061 E61.09414
G1 X123.938 Y90.101 E61.26035
G1 X124.712 Y90.22 E61.42637
G1 X125.471 Y90.418 E61.59266
G1 X126.205 Y90.692 E61.75876
G1 X126.908 Y91.04 E61.92506
G1 X126.995 Y91.095 E61.94688
G1 X127.57 Y90.673 E62.09808
G1 X128.246 Y90.277 E62.26417
G1 X128.959 Y89.951 E62.43038
G1 X129.702 Y89.7 E62.59664
G1 X130.466 Y89.526 E62.76276
G1 X131.244 Y89.43 E62.92894
G1 X131.79 Y89.411 E63.04477
G1 X134.146 Y89.411 E63.54424
G1 X134.929 Y89.451 E63.71045
G1 X135.703 Y89.57 E63.87647
G1 X136.462 Y89.768 E64.04276
G1 X137.196 Y90.042 E64.20886
G1 X137.899 Y90.39 E64.37515
G1 X138.563 Y90.807 E64.54138
G1 X139.18 Y91.289 E64.70736
G1 X139.58 Y91.662 E64.82331
G1 X139.806 Y91.896 E64.89228
G1 X140.183 Y91.738 E64.97894
G1 X140.933 Y91.511 E65.14506
G1 X141.703 Y91.361 E65.31137
G1 X142.483 Y91.291 E65.4774
G1 X143.267 Y91.3 E65.64361
G1 X144.046 Y91.389 E65.80984
G1 X144.811 Y91.558 E65.97593
G1 X145.556 Y91.803 E66.14219
G1 X146.272 Y92.122 E66.30836
G1 X146.951 Y92.513 E66.47447
G1 X147.587 Y92.972 E66.64075
G1 X148.173 Y93.492 E66.80684
G1 X148.65 Y93.999 E66.95442
G1 X149.127 Y94.579 E67.11362
G1 X149.496 Y95.075 E67.24468
G1 X149.967 Y95.77 E67.42267
G1 X150.314 Y96.353 E67.5665
G1 X150.614 Y96.908 E67.70025
G1 X150.992 Y97.681 E67.88267
G1 X151.27 Y98.322 E68.03079
G1 X151.615 Y99.228 E68.23632
G1 X151.789 Y99.739 E68.35076
G1 X151.978 Y100.364 E68.48918
G1 X152.209 Y101.364 E68.70677
G1 X152.214 Y101.395 E68.71342
G1 X152.299 Y102.174 E68.87955
G1 X152.312 Y102.619 E68.97393
G1 X152.313 Y120.374 E72.73799
G1 X152.254 Y121.327 E72.94041
G1 X152.248 Y121.375 E72.95067
G1 X152.111 Y122.147 E73.11689
G1 X151.973 Y122.663 E73.23013
G1 X151.78 Y123.296 E73.37042
G1 X151.607 Y123.8 E73.48339
G1 X151.269 Y124.684 E73.68403
G1 X151.017 Y125.269 E73.81907
G1 X150.64 Y126.053 E74.00349
G1 X150.267 Y126.738 E74.16885
G1 X149.903 Y127.332 E74.31654
G1 X149.51 Y127.911 E74.46489
G1 X149.155 Y128.385 E74.59044
G1 X149.034 Y128.541 E74.63229
G1 X148.66 Y128.988 E74.75585
G1 X148.479 Y129.188 E74.81304
G1 X147.924 Y129.741 E74.97913
G1 X147.316 Y130.235 E75.14521
G1 X146.66 Y130.665 E75.3115
G1 X145.964 Y131.026 E75.47772
G1 X145.235 Y131.314 E75.64389
G1 X144.48 Y131.526 E75.81014
G1 X143.708 Y131.66 E75.97625
G1 X142.926 Y131.715 E76.14244
G1 X142.143 Y131.689 E76.30853
G1 X141.366 Y131.585 E76.47472
G1 X140.604 Y131.401 E76.64091
G1 X139.865 Y131.141 E76.80699
G1 X139.802 Y131.112 E76.8217
G1 X139.581 Y131.338 E76.88871
G1 X138.999 Y131.863 E77.05487
G1 X138.367 Y132.327 E77.22109
G1 X137.691 Y132.723 E77.38718
G1 X136.978 Y133.049 E77.55339
G1 X136.235 Y133.3 E77.71965
G1 X135.471 Y133.474 E77.88577
G1 X134.693 Y133.57 E78.05195
G1 X134.147 Y133.589 E78.16777
G1 X131.791 Y133.589 E78.66725
G1 X131.008 Y133.549 E78.83346
G1 X130.234 Y133.43 E78.99948
G1 X129.475 Y133.232 E79.16577
G1 X128.741 Y132.958 E79.33186
G1 X128.038 Y132.61 E79.49816
G1 X127.374 Y132.193 E79.66439
G1 X126.998 Y131.9 E79.76544
G1 X126.486 Y132.179 E79.88906
G1 X125.764 Y132.483 E80.05514
G1 X125.014 Y132.711 E80.22132
G1 X124.244 Y132.861 E80.38763
G1 X123.155 Y132.939 E80.61909
G1 X100.2 Y132.939 E85.48555
G1 X99.417 Y132.899 E85.65176
G1 X98.643 Y132.78 E85.81778
G1 X97.884 Y132.582 E85.98407
G1 X97.15 Y132.308 E86.15017
G1 X96.447 Y131.96 E86.31646
G1 X96.36 Y131.905 E86.33828
G1 X95.785 Y132.327 E86.48949
G1 X95.109 Y132.723 E86.65558
G1 X94.396 Y133.049 E86.82179
G1 X93.653 Y133.3 E86.98805
G1 X92.889 Y133.474 E87.15416
G1 X92.111 Y133.57 E87.32035
G1 X91.565 Y133.589 E87.43617
G1 X89.192 Y133.589 E87.93925
G1 X88.409 Y133.549 E88.10546
G1 X87.635 Y133.43 E88.27148
G1 X86.876 Y133.232 E88.43777
G1 X86.142 Y132.958 E88.60387
G1 X85.439 Y132.61 E88.77016
G1 X84.775 Y132.193 E88.93639
G1 X84.494 Y131.973 E89.01205
G1 X84.043 Y132.299 E89.13002
G1 X83.364 Y132.691 E89.29624
G1 X82.649 Y133.011 E89.46231
G1 X81.905 Y133.258 E89.6285
G1 X81.139 Y133.427 E89.7948
G1 X80.361 Y133.517 E89.96083
G1 X79.577 Y133.528 E90.12706
G1 X78.796 Y133.458 E90.29329
G1 X78.027 Y133.31 E90.45931
G1 X77.276 Y133.083 E90.62564
G1 X76.553 Y132.782 E90.79167
G1 X75.864 Y132.408 E90.95787
G1 X75.216 Y131.967 E91.12404
G1 X74.434 Y131.285 E91.34401
G1 X73.394 Y130.246 E91.65567
G1 X72.869 Y129.664 E91.82184
G1 X72.356 Y128.956 E92.00719
G1 X71.246 Y127.224 E92.44331
G1 X70.857 Y126.543 E92.60958
G1 X70.54 Y125.826 E92.77577
G1 X70.297 Y125.081 E92.9419
G1 X70.131 Y124.315 E93.10806
G1 X70.045 Y123.536 E93.27422
G1 X70.038 Y122.752 E93.44043
G1 X70.105 Y122.038 E93.59246
G1 X70.085 Y122.003 E93.60101
G1 X69.766 Y121.287 E93.76718
G1 X69.523 Y120.542 E93.93331
G1 X69.311 Y119.453 E94.16852
G1 X69.104 Y117.742 E94.53389
G1 X69.085 Y117.572 E94.57016
G1 X68.947 Y116.171 E94.86861
G1 X68.911 Y115.306 E95.05215
G1 X68.934 Y113.725 E95.38735
G1 X68.985 Y112.943 E95.55349
G1 X69.116 Y112.17 E95.7197
G1 X69.325 Y111.415 E95.88578
G1 X69.374 Y111.289 E95.91444
G1 X69.186 Y110.538 E96.07857
G1 X69.074 Y109.762 E96.24478
G1 X69.042 Y109.058 E96.39419
G1 X69.042 Y107.704 E96.68123
G1 X69.066 Y107.093 E96.81087
G1 X69.138 Y106.19 E97.00291
G1 X69.164 Y105.924 E97.05957
G1 X69.469 Y103.266 E97.62676
G1 X69.557 Y101.788 E97.94065
G1 X69.644 Y101.009 E98.10683
G1 X69.816 Y100.217 E98.27865
G1 X70.127 Y99.079 E98.52875
G1 X70.186 Y98.786 E98.59211
G1 X70.38 Y98.027 E98.75819
G1 X70.65 Y97.291 E98.92439
G1 X70.845 Y96.87 E99.02275
G1 X71.283 Y95.993 E99.23058
G1 X71.439 Y95.694 E99.30207
G1 X71.774 Y95.032 E99.45936
G1 X72.163 Y94.352 E99.62545
G1 X72.619 Y93.714 E99.7917
G1 X73.003 Y93.265 E99.91695
G1 X73.326 Y92.922 E100.01683
G1 X74.445 Y91.803 E100.35232
G1 X75.027 Y91.278 E100.51849
G0 F3927.3 X75.382 Y91.672
G1 F1800 X75.995 Y91.228 E100.67895
G1 X76.65 Y90.852 E100.83907
G1 X77.342 Y90.547 E100.99939
G1 X78.063 Y90.316 E101.15989
G1 X78.804 Y90.163 E101.3203
G1 X79.556 Y90.089 E101.48049
G1 X80.312 Y90.095 E101.64077
G1 X81.064 Y90.181 E101.80123
G1 X81.802 Y90.345 E101.96151
G1 X82.519 Y90.587 E102.12193
G1 X83.206 Y90.903 E102.28225
G1 X83.856 Y91.289 E102.44251
G1 X84.41 Y91.7 E102.58875
G1 X84.46 Y91.741 E102.60246
G1 X84.694 Y91.531 E102.66912
G1 X85.307 Y91.087 E102.82958
G1 X85.962 Y90.711 E102.98969
G1 X86.654 Y90.406 E103.15001
G1 X87.375 Y90.175 E103.31052
G1 X88.116 Y90.022 E103.47093
G1 X89.191 Y89.941 E103.69947
G1 X91.564 Y89.941 E104.20255
G1 X92.319 Y89.981 E104.36283
G1 X93.066 Y90.1 E104.52319
G1 X93.796 Y90.298 E104.68354
G1 X94.501 Y90.572 E104.8439
G1 X95.173 Y90.918 E105.00413
G1 X95.805 Y91.334 E105.16454
G1 X96.3 Y91.759 E105.30285
G1 X96.687 Y91.513 E105.40007
G1 X97.364 Y91.177 E105.5603
G1 X98.073 Y90.914 E105.72061
G1 X98.806 Y90.728 E105.88093
G1 X99.555 Y90.62 E106.04136
G1 X100.2 Y90.591 E106.17824
G1 X123.155 Y90.591 E111.0447
G1 X123.91 Y90.631 E111.20499
G1 X124.657 Y90.75 E111.36535
G1 X125.387 Y90.948 E111.5257
G1 X126.092 Y91.222 E111.68605
G1 X126.764 Y91.568 E111.84629
G1 X127.046 Y91.754 E111.91791
G1 X127.293 Y91.531 E111.98845
G1 X127.906 Y91.087 E112.14892
G1 X128.561 Y90.711 E112.30903
G1 X129.253 Y90.406 E112.46935
G1 X129.974 Y90.175 E112.62986
G1 X130.715 Y90.022 E112.79026
G1 X131.79 Y89.941 E113.01881
G1 X134.146 Y89.941 E113.51828
G1 X134.901 Y89.981 E113.67857
G1 X135.648 Y90.1 E113.83893
G1 X136.378 Y90.298 E113.99928
G1 X137.083 Y90.572 E114.15963
G1 X137.755 Y90.918 E114.31987
G1 X138.387 Y91.334 E114.48027
G1 X139.205 Y92.037 E114.70893
G1 X139.672 Y92.538 E114.85413
G1 X139.955 Y92.398 E114.92107
G1 X140.665 Y92.136 E115.08151
G1 X141.398 Y91.95 E115.24183
G1 X142.147 Y91.843 E115.40223
G1 X142.902 Y91.816 E115.56239
G1 X143.657 Y91.869 E115.72284
G1 X144.402 Y92 E115.88321
G1 X145.128 Y92.21 E116.04343
G1 X145.829 Y92.496 E116.20393
G1 X146.495 Y92.853 E116.36413
G1 X147.12 Y93.279 E116.52448
G1 X147.696 Y93.769 E116.6848
G1 X148.08 Y94.16 E116.80098
G1 X148.258 Y94.356 E116.85711
G1 X148.702 Y94.895 E117.00516
G1 X149.071 Y95.391 E117.13622
G1 X149.511 Y96.042 E117.3028
G1 X149.858 Y96.625 E117.44663
G1 X150.138 Y97.141 E117.57109
G1 X150.516 Y97.914 E117.75351
G1 X150.775 Y98.511 E117.89147
G1 X151.12 Y99.417 E118.097
G1 X151.282 Y99.892 E118.20339
G1 X151.471 Y100.517 E118.34182
G1 X151.686 Y101.449 E118.54459
G1 X151.691 Y101.48 E118.55125
