;FLAVOR:UltiGCode
;TIME:1401
;MATERIAL:3352
;MATERIAL2:0
;NOZZLE_DIAMETER:0.6
;MINX:91.833
;MINY:91.837
;MINZ:0.4
;MAXX:131.167
;MAXY:131.163
;MAXZ:13
;Generated with Cura_SteamEngine 4.13.1
M82 ;absolute extrusion mode
G0 F3000 Y50 ;avoid prime blob
G92 E0
G92 E0
G10
;LAYER_COUNT:85
;LAYER:0
M107
G0 F3927.3 X97.525 Y97.652 Z0.4
;TYPE:SKIRT
G11
G1 F1800 X98.433 Y96.793 E0.26499
G1 X99.112 Y96.217 E0.45375
G1 X100.108 Y95.461 E0.71884
G1 X100.847 Y94.961 E0.908
G1 X101.91 Y94.323 E1.17083
G1 X102.684 Y93.914 E1.35642
G1 X103.806 Y93.394 E1.61859
G1 X104.644 Y93.06 E1.80983
G1 X105.82 Y92.665 E2.07283
G1 X106.675 Y92.428 E2.26093
G1 X107.896 Y92.16 E2.52594
G1 X108.779 Y92.016 E2.71561
G1 X110.007 Y91.884 E2.97745
G1 X110.885 Y91.837 E3.16385
G1 X112.116 Y91.837 E3.42482
G1 X112.995 Y91.884 E3.61144
G1 X114.222 Y92.016 E3.87306
G1 X115.11 Y92.161 E4.06381
G1 X116.345 Y92.433 E4.3319
G1 X117.2 Y92.671 E4.52006
G1 X118.358 Y93.061 E4.7791
G1 X119.191 Y93.393 E4.96921
G1 X120.328 Y93.92 E5.23488
G1 X121.107 Y94.333 E5.42181
G1 X122.171 Y94.973 E5.68504
G1 X122.914 Y95.477 E5.87537
G1 X123.908 Y96.234 E6.14025
G1 X124.581 Y96.807 E6.32764
G1 X125.476 Y97.655 E6.58902
G1 X126.092 Y98.305 E6.77887
G1 X126.9 Y99.258 E7.04375
G1 X127.435 Y99.964 E7.23154
G1 X128.128 Y100.987 E7.49349
G1 X128.586 Y101.748 E7.68179
G1 X129.165 Y102.841 E7.94401
G1 X129.538 Y103.646 E8.1321
G1 X129.995 Y104.793 E8.39385
G1 X130.28 Y105.641 E8.58351
G1 X130.614 Y106.847 E8.84881
G1 X130.802 Y107.698 E9.03357
G1 X131.002 Y108.906 E9.29315
G1 X131.1 Y109.811 E9.48613
G1 X131.167 Y111.07 E9.75342
G1 X131.167 Y111.943 E9.93849
G1 X131.102 Y113.165 E10.19792
G1 X131.006 Y114.058 E10.38833
G1 X130.803 Y115.296 E10.65429
G1 X130.61 Y116.17 E10.84404
G1 X130.277 Y117.366 E11.10724
G1 X129.995 Y118.202 E11.29428
G1 X129.532 Y119.365 E11.55966
G1 X129.154 Y120.182 E11.7505
G1 X128.573 Y121.275 E12.01292
G1 X128.117 Y122.031 E12.20009
G1 X127.425 Y123.051 E12.4614
G1 X126.892 Y123.752 E12.64809
G1 X126.094 Y124.693 E12.90966
G1 X125.475 Y125.348 E13.10072
G1 X124.567 Y126.207 E13.3657
G1 X123.888 Y126.783 E13.55447
G1 X122.892 Y127.539 E13.81956
G1 X122.153 Y128.039 E14.00872
G1 X121.09 Y128.677 E14.27155
G1 X120.316 Y129.086 E14.45714
G1 X119.194 Y129.606 E14.7193
G1 X118.356 Y129.94 E14.91055
G1 X117.18 Y130.335 E15.17355
G1 X116.325 Y130.572 E15.36164
G1 X115.104 Y130.84 E15.62666
G1 X114.221 Y130.984 E15.81633
G1 X112.993 Y131.116 E16.07816
G1 X112.108 Y131.163 E16.26605
G1 X110.863 Y131.162 E16.52999
G1 X109.979 Y131.114 E16.71767
G1 X108.751 Y130.98 E16.97955
G1 X107.873 Y130.835 E17.16821
G1 X106.653 Y130.566 E17.43306
G1 X105.8 Y130.329 E17.62075
G1 X104.642 Y129.939 E17.87979
G1 X103.809 Y129.607 E18.0699
G1 X102.672 Y129.08 E18.33558
G1 X101.893 Y128.667 E18.5225
G1 X100.829 Y128.027 E18.78573
G1 X100.086 Y127.523 E18.97607
G1 X99.092 Y126.766 E19.24095
G1 X98.418 Y126.193 E19.42849
G1 X97.521 Y125.343 E19.69047
G1 X96.905 Y124.691 E19.88063
G1 X96.099 Y123.74 E20.14491
G1 X95.565 Y123.036 E20.33224
G1 X94.872 Y122.013 E20.59419
G1 X94.414 Y121.252 E20.78249
G1 X93.835 Y120.159 E21.04471
G1 X93.459 Y119.345 E21.2348
G1 X92.998 Y118.184 E21.49962
G1 X92.716 Y117.344 E21.68747
G1 X92.386 Y116.152 E21.94968
G1 X92.198 Y115.3 E22.13465
G1 X91.998 Y114.09 E22.39465
G1 X91.9 Y113.187 E22.58721
G1 X91.833 Y111.93 E22.85407
G1 X91.833 Y111.05 E23.04063
G1 X91.9 Y109.808 E23.30432
G1 X91.999 Y108.908 E23.49627
G1 X92.202 Y107.683 E23.75951
G1 X92.392 Y106.823 E23.94623
G1 X92.723 Y105.634 E24.20788
G1 X93.005 Y104.798 E24.39492
G1 X93.468 Y103.635 E24.6603
G1 X93.846 Y102.818 E24.85114
G1 X94.427 Y101.725 E25.11356
G1 X94.883 Y100.969 E25.30073
G1 X95.575 Y99.949 E25.56204
G1 X96.108 Y99.248 E25.74873
G1 X96.906 Y98.307 E26.0103
G1 X97.525 Y97.652 E26.20136
G0 F3927.3 X97.89 Y98.037
G1 F1800 X98.798 Y97.178 E26.46634
G1 X99.433 Y96.64 E26.64278
G1 X100.429 Y95.884 E26.90787
G1 X101.12 Y95.416 E27.0848
G1 X102.183 Y94.778 E27.34763
G1 X102.907 Y94.394 E27.52137
G1 X104.029 Y93.874 E27.78354
G1 X104.813 Y93.562 E27.96243
G1 X105.989 Y93.167 E28.22543
G1 X106.788 Y92.946 E28.40117
G1 X108.009 Y92.678 E28.66619
G1 X108.836 Y92.543 E28.84383
G1 X110.064 Y92.411 E29.10567
G1 X110.885 Y92.367 E29.27997
G1 X112.116 Y92.367 E29.54094
G1 X112.938 Y92.411 E29.71546
G1 X114.165 Y92.543 E29.97708
G1 X114.996 Y92.679 E30.1556
G1 X116.231 Y92.951 E30.42369
G1 X117.031 Y93.173 E30.5997
G1 X118.189 Y93.563 E30.85874
G1 X118.968 Y93.874 E31.03657
G1 X120.105 Y94.401 E31.30224
G1 X120.834 Y94.788 E31.47722
G1 X121.898 Y95.428 E31.74045
G1 X122.593 Y95.899 E31.91844
G1 X123.587 Y96.656 E32.18332
G1 X124.217 Y97.191 E32.35854
G1 X125.112 Y98.039 E32.61992
G1 X125.688 Y98.648 E32.79763
G1 X126.496 Y99.601 E33.06251
G1 X126.997 Y100.261 E33.23817
G1 X127.69 Y101.284 E33.50013
G1 X128.118 Y101.997 E33.67643
G1 X128.697 Y103.09 E33.93865
G1 X129.045 Y103.843 E34.11451
G1 X129.502 Y104.99 E34.37626
G1 X129.769 Y105.783 E34.55365
G1 X130.103 Y106.989 E34.81894
G1 X130.279 Y107.785 E34.99177
G1 X130.479 Y108.993 E35.25135
G1 X130.571 Y109.84 E35.43197
G1 X130.638 Y111.099 E35.69926
G1 X130.638 Y111.915 E35.87225
G1 X130.573 Y113.137 E36.13168
G1 X130.483 Y113.973 E36.30994
G1 X130.28 Y115.211 E36.5759
G1 X130.099 Y116.028 E36.7533
G1 X129.766 Y117.224 E37.0165
G1 X129.503 Y118.005 E37.19121
G1 X129.04 Y119.168 E37.45658
G1 X128.686 Y119.933 E37.63529
G1 X128.105 Y121.026 E37.8977
G1 X127.679 Y121.734 E38.07288
G1 X126.987 Y122.754 E38.33418
G1 X126.488 Y123.409 E38.50875
G1 X125.69 Y124.35 E38.77032
G1 X125.11 Y124.963 E38.94922
G1 X124.202 Y125.822 E39.21421
G1 X123.567 Y126.36 E39.39065
G1 X122.571 Y127.116 E39.65574
G1 X121.88 Y127.584 E39.83267
G1 X120.817 Y128.222 E40.0955
G1 X120.093 Y128.606 E40.26924
G1 X118.971 Y129.126 E40.53141
G1 X118.187 Y129.438 E40.71029
G1 X117.011 Y129.833 E40.97329
G1 X116.212 Y130.054 E41.14904
G1 X114.991 Y130.322 E41.41406
G1 X114.164 Y130.457 E41.5917
G1 X112.936 Y130.589 E41.85354
G1 X112.109 Y130.633 E42.02911
G1 X110.864 Y130.632 E42.29305
G1 X110.036 Y130.587 E42.46884
G1 X108.808 Y130.453 E42.73072
G1 X107.987 Y130.318 E42.90711
G1 X106.767 Y130.049 E43.17197
G1 X105.969 Y129.827 E43.34757
G1 X104.811 Y129.437 E43.60661
G1 X104.032 Y129.126 E43.78443
G1 X102.895 Y128.599 E44.05011
G1 X102.166 Y128.212 E44.22509
G1 X101.102 Y127.572 E44.48832
G1 X100.407 Y127.101 E44.6663
G1 X99.413 Y126.344 E44.93118
G1 X98.783 Y125.808 E45.10654
G1 X97.886 Y124.958 E45.36852
G1 X97.309 Y124.349 E45.54638
G1 X96.503 Y123.398 E45.81066
G1 X96.003 Y122.739 E45.98603
G1 X95.31 Y121.716 E46.24798
G1 X94.882 Y121.003 E46.42428
G1 X94.303 Y119.91 E46.6865
G1 X93.951 Y119.149 E46.86426
G1 X93.49 Y117.988 E47.12908
G1 X93.227 Y117.202 E47.30479
G1 X92.897 Y116.01 E47.567
G1 X92.721 Y115.213 E47.74004
G1 X92.521 Y114.003 E48.00004
G1 X92.429 Y113.159 E48.18003
G1 X92.362 Y111.902 E48.44689
G1 X92.362 Y111.079 E48.62136
G1 X92.429 Y109.837 E48.88505
G1 X92.521 Y108.995 E49.06462
G1 X92.724 Y107.77 E49.32786
G1 X92.903 Y106.965 E49.50269
G1 X93.234 Y105.776 E49.76434
G1 X93.497 Y104.995 E49.93905
G1 X93.96 Y103.832 E50.20442
G1 X94.314 Y103.067 E50.38313
G1 X94.895 Y101.974 E50.64555
G1 X95.321 Y101.266 E50.82072
G1 X96.013 Y100.246 E51.08203
G1 X96.512 Y99.591 E51.25659
G1 X97.31 Y98.65 E51.51816
G1 X97.89 Y98.037 E51.69707
G0 F3927.3 X98.254 Y98.422
G1 F1800 X99.162 Y97.563 E51.96205
G1 X99.753 Y97.062 E52.12631
G1 X100.749 Y96.306 E52.39139
G1 X101.393 Y95.87 E52.55627
G1 X102.456 Y95.232 E52.8191
G1 X103.129 Y94.875 E52.98061
G1 X104.251 Y94.355 E53.24277
G1 X104.982 Y94.064 E53.40957
G1 X106.158 Y93.669 E53.67257
G1 X106.902 Y93.463 E53.83624
G1 X108.123 Y93.195 E54.10125
G1 X108.892 Y93.07 E54.26642
G1 X110.12 Y92.938 E54.52825
G1 X110.885 Y92.897 E54.69067
G1 X112.116 Y92.897 E54.95164
G1 X112.881 Y92.938 E55.11405
G1 X114.108 Y93.07 E55.37568
G1 X114.882 Y93.196 E55.54192
G1 X116.117 Y93.468 E55.81002
G1 X116.862 Y93.675 E55.97394
G1 X118.02 Y94.065 E56.23299
G1 X118.745 Y94.354 E56.39845
G1 X119.882 Y94.881 E56.66413
G1 X120.561 Y95.242 E56.82715
G1 X121.625 Y95.882 E57.09038
G1 X122.272 Y96.321 E57.25614
G1 X123.266 Y97.078 E57.52102
G1 X123.852 Y97.576 E57.68405
G1 X124.747 Y98.424 E57.94544
G1 X125.283 Y98.991 E58.11085
G1 X126.091 Y99.944 E58.37573
G1 X126.558 Y100.558 E58.53927
G1 X127.251 Y101.581 E58.80122
G1 X127.65 Y102.245 E58.96545
G1 X128.229 Y103.338 E59.22767
G1 X128.553 Y104.039 E59.39139
G1 X129.01 Y105.186 E59.65314
G1 X129.258 Y105.924 E59.8182
G1 X129.592 Y107.13 E60.08349
G1 X129.756 Y107.871 E60.24439
G1 X129.956 Y109.079 E60.50397
G1 X130.042 Y109.868 E60.67223
G1 X130.109 Y111.127 E60.93951
G1 X130.109 Y111.887 E61.10063
G1 X130.044 Y113.109 E61.36006
G1 X129.96 Y113.887 E61.52596
G1 X129.757 Y115.125 E61.79192
G1 X129.589 Y115.886 E61.95713
G1 X129.256 Y117.082 E62.22033
G1 X129.011 Y117.809 E62.38297
G1 X128.548 Y118.972 E62.64835
G1 X128.218 Y119.684 E62.81472
G1 X127.637 Y120.777 E63.07713
G1 X127.24 Y121.436 E63.24024
G1 X126.548 Y122.456 E63.50154
G1 X126.084 Y123.067 E63.66419
G1 X125.286 Y124.008 E63.92576
G1 X124.746 Y124.578 E64.09222
G1 X123.838 Y125.437 E64.3572
G1 X123.247 Y125.938 E64.52146
G1 X122.251 Y126.694 E64.78655
G1 X121.607 Y127.13 E64.95142
G1 X120.544 Y127.768 E65.21425
G1 X119.871 Y128.125 E65.37576
G1 X118.749 Y128.645 E65.63793
G1 X118.018 Y128.936 E65.80473
G1 X116.842 Y129.331 E66.06773
G1 X116.098 Y129.537 E66.23139
G1 X114.877 Y129.805 E66.4964
G1 X114.108 Y129.93 E66.66157
G1 X112.88 Y130.062 E66.92341
G1 X112.109 Y130.103 E67.08709
G1 X110.864 Y130.102 E67.35103
G1 X110.094 Y130.06 E67.51451
G1 X108.866 Y129.926 E67.77639
G1 X108.101 Y129.8 E67.94076
G1 X106.881 Y129.531 E68.20561
G1 X106.138 Y129.325 E68.36907
G1 X104.98 Y128.935 E68.62811
G1 X104.255 Y128.646 E68.79357
G1 X103.118 Y128.119 E69.05925
G1 X102.439 Y127.758 E69.22228
G1 X101.375 Y127.118 E69.48551
G1 X100.728 Y126.679 E69.65127
G1 X99.734 Y125.922 E69.91615
G1 X99.148 Y125.424 E70.07918
G1 X98.251 Y124.574 E70.34116
G1 X97.714 Y124.006 E70.50687
G1 X96.908 Y123.055 E70.77116
G1 X96.442 Y122.442 E70.9344
G1 X95.749 Y121.419 E71.19635
G1 X95.35 Y120.755 E71.36058
G1 X94.771 Y119.662 E71.6228
G1 X94.444 Y118.954 E71.78813
G1 X93.983 Y117.793 E72.05296
G1 X93.737 Y117.061 E72.21667
G1 X93.407 Y115.869 E72.47888
G1 X93.244 Y115.127 E72.63993
G1 X93.044 Y113.917 E72.89994
G1 X92.958 Y113.131 E73.06756
G1 X92.891 Y111.874 E73.33442
G1 X92.891 Y111.108 E73.49682
G1 X92.958 Y109.866 E73.7605
G1 X93.044 Y109.081 E73.92792
G1 X93.247 Y107.856 E74.19116
G1 X93.413 Y107.107 E74.3538
G1 X93.744 Y105.918 E74.61545
G1 X93.989 Y105.191 E74.7781
G1 X94.452 Y104.028 E75.04347
G1 X94.782 Y103.316 E75.20984
G1 X95.363 Y102.223 E75.47226
G1 X95.76 Y101.564 E75.63536
G1 X96.452 Y100.544 E75.89667
G1 X96.916 Y99.933 E76.05932
G1 X97.714 Y98.992 E76.32088
G1 X98.254 Y98.422 E76.48734
G0 F3927.3 X98.618 Y98.807
G1 F1800 X99.526 Y97.948 E76.75233
G1 X100.074 Y97.484 E76.90456
G1 X101.07 Y96.728 E77.16964
G1 X101.666 Y96.325 E77.32217
G1 X102.729 Y95.687 E77.585
G1 X103.352 Y95.356 E77.73456
G1 X104.474 Y94.836 E77.99673
G1 X105.151 Y94.567 E78.15117
G1 X106.327 Y94.172 E78.41417
G1 X107.016 Y93.981 E78.56574
G1 X108.237 Y93.713 E78.83076
G1 X108.949 Y93.597 E78.98369
G1 X110.177 Y93.465 E79.24553
G1 X110.885 Y93.427 E79.39584
G1 X112.116 Y93.427 E79.65681
G1 X112.825 Y93.465 E79.80734
G1 X114.052 Y93.597 E80.06896
G1 X114.768 Y93.714 E80.22277
G1 X116.003 Y93.986 E80.49086
G1 X116.693 Y94.178 E80.6427
G1 X117.851 Y94.568 E80.90174
G1 X118.522 Y94.835 E81.05484
G1 X119.659 Y95.362 E81.32052
G1 X120.288 Y95.696 E81.4715
G1 X121.352 Y96.336 E81.73473
G1 X121.951 Y96.742 E81.88814
G1 X122.945 Y97.499 E82.15302
G1 X123.488 Y97.961 E82.30417
G1 X124.383 Y98.809 E82.56555
G1 X124.879 Y99.334 E82.71866
G1 X125.687 Y100.287 E82.98354
G1 X126.119 Y100.855 E83.13483
G1 X126.812 Y101.878 E83.39678
G1 X127.181 Y102.493 E83.54883
G1 X127.76 Y103.586 E83.81105
G1 X128.06 Y104.235 E83.96263
G1 X128.517 Y105.382 E84.22438
G1 X128.748 Y106.066 E84.37744
G1 X129.082 Y107.272 E84.64273
G1 X129.233 Y107.958 E84.79165
G1 X129.433 Y109.166 E85.05123
G1 X129.513 Y109.896 E85.20691
G1 X129.58 Y111.155 E85.4742
G1 X129.58 Y111.859 E85.62345
G1 X129.515 Y113.081 E85.88288
G1 X129.437 Y113.801 E86.03641
G1 X129.234 Y115.039 E86.30237
G1 X129.078 Y115.744 E86.45545
G1 X128.745 Y116.94 E86.71864
G1 X128.518 Y117.613 E86.86922
G1 X128.055 Y118.776 E87.13459
G1 X127.75 Y119.436 E87.28873
G1 X127.169 Y120.529 E87.55115
G1 X126.801 Y121.138 E87.702
G1 X126.109 Y122.158 E87.96331
G1 X125.68 Y122.724 E88.11387
G1 X124.882 Y123.665 E88.37544
G1 X124.382 Y124.193 E88.5296
G1 X123.474 Y125.052 E88.79459
G1 X122.926 Y125.516 E88.94681
G1 X121.93 Y126.272 E89.2119
G1 X121.334 Y126.675 E89.36443
G1 X120.271 Y127.313 E89.62726
G1 X119.648 Y127.644 E89.77682
G1 X118.526 Y128.164 E90.03899
G1 X117.849 Y128.433 E90.19343
G1 X116.673 Y128.828 E90.45643
G1 X115.984 Y129.019 E90.608
G1 X114.763 Y129.287 E90.87302
G1 X114.051 Y129.403 E91.02595
G1 X112.823 Y129.535 E91.28779
G1 X112.11 Y129.573 E91.43916
G1 X110.865 Y129.572 E91.7031
G1 X110.151 Y129.533 E91.85469
G1 X108.923 Y129.399 E92.11657
G1 X108.216 Y129.283 E92.26846
G1 X106.996 Y129.014 E92.53331
G1 X106.307 Y128.822 E92.68495
G1 X105.149 Y128.432 E92.94399
G1 X104.478 Y128.165 E93.09709
G1 X103.341 Y127.638 E93.36277
G1 X102.712 Y127.304 E93.51375
G1 X101.648 Y126.664 E93.77698
G1 X101.049 Y126.258 E93.93039
G1 X100.055 Y125.501 E94.19527
G1 X99.512 Y125.039 E94.34641
G1 X98.615 Y124.189 E94.60839
G1 X98.118 Y123.663 E94.76181
G1 X97.312 Y122.712 E95.02609
G1 X96.881 Y122.145 E95.17708
G1 X96.188 Y121.122 E95.43903
G1 X95.819 Y120.507 E95.59108
G1 X95.24 Y119.414 E95.8533
G1 X94.937 Y118.758 E96.00649
G1 X94.476 Y117.597 E96.27132
G1 X94.248 Y116.92 E96.42276
G1 X93.918 Y115.728 E96.68497
G1 X93.767 Y115.04 E96.8343
G1 X93.567 Y113.83 E97.0943
G1 X93.487 Y113.103 E97.24936
G1 X93.42 Y111.846 E97.51622
G1 X93.421 Y111.136 E97.66674
G1 X93.488 Y109.894 E97.93042
G1 X93.567 Y109.168 E98.08525
G1 X93.77 Y107.943 E98.34849
G1 X93.924 Y107.249 E98.49919
G1 X94.255 Y106.06 E98.76085
G1 X94.482 Y105.387 E98.91142
G1 X94.945 Y104.224 E99.1768
G1 X95.25 Y103.564 E99.33093
G1 X95.831 Y102.471 E99.59335
G1 X96.199 Y101.862 E99.7442
G1 X96.891 Y100.842 E100.00551
G1 X97.32 Y100.276 E100.15607
G1 X98.118 Y99.335 E100.41764
G1 X98.618 Y98.807 E100.5718
G0 F3927.3 X98.982 Y99.192
G1 F1800 X99.89 Y98.333 E100.83679
G1 X100.394 Y97.906 E100.97683
G1 X101.39 Y97.15 E101.24192
G1 X101.938 Y96.779 E101.38221
G1 X103.001 Y96.141 E101.64504
G1 X103.575 Y95.837 E101.78275
G1 X104.697 Y95.317 E102.04491
G1 X105.319 Y95.069 E102.18687
G1 X106.495 Y94.674 E102.44987
G1 X107.129 Y94.499 E102.58931
G1 X108.35 Y94.231 E102.85432
G1 X109.006 Y94.124 E102.99523
G1 X110.234 Y93.992 E103.25707
G1 X110.885 Y93.957 E103.39528
G1 X112.116 Y93.957 E103.65625
G1 X112.768 Y93.992 E103.79467
G1 X113.995 Y94.124 E104.0563
G1 X114.654 Y94.232 E104.19787
G1 X115.889 Y94.504 E104.46596
G1 X116.523 Y94.68 E104.60545
G1 X117.681 Y95.07 E104.8645
G1 X118.299 Y95.316 E105.00551
G1 X119.436 Y95.843 E105.27119
G1 X120.015 Y96.15 E105.41013
G1 X121.079 Y96.79 E105.67336
G1 X121.63 Y97.164 E105.81454
G1 X122.624 Y97.921 E106.07942
G1 X123.123 Y98.346 E106.21837
G1 X124.018 Y99.194 E106.47976
G1 X124.475 Y99.676 E106.62057
G1 X125.283 Y100.629 E106.88545
G1 X125.68 Y101.153 E107.02482
G1 X126.373 Y102.176 E107.28677
G1 X126.713 Y102.741 E107.42657
G1 X127.292 Y103.834 E107.68879
G1 X127.568 Y104.431 E107.82822
G1 X128.025 Y105.578 E108.08997
G1 X128.237 Y106.207 E108.23069
G1 X128.571 Y107.413 E108.49599
G1 X128.71 Y108.044 E108.63297
G1 X128.91 Y109.252 E108.89255
G1 X128.983 Y109.924 E109.03585
G1 X129.05 Y111.183 E109.30314
G1 X129.05 Y111.831 E109.44051
G1 X128.985 Y113.053 E109.69994
G1 X128.914 Y113.715 E109.84109
G1 X128.711 Y114.953 E110.10705
G1 X128.568 Y115.602 E110.24794
G1 X128.235 Y116.798 E110.51114
G1 X128.026 Y117.417 E110.64965
G1 X127.563 Y118.58 E110.91502
